icon/gr/gallery.svg

<svg xmlns="http://www.w3.org/2000/svg" viewBox="0 0 24 24" height="1em" width="1em">
  <path fill="none" stroke="#000" stroke-width="2" d="M1,1 L19,1 L19,19 L1,19 L1,1 Z M5,19 L5,23 L23,23 L23,5.97061363 L18.9998921,5.97061363 M6,8 C6.55228475,8 7,7.55228475 7,7 C7,6.44771525 6.55228475,6 6,6 C5.44771525,6 5,6.44771525 5,7 C5,7.55228475 5.44771525,8 6,8 Z M2,18 L7,12 L10,15 L14,10 L19,16"/>
</svg>

<svg xmlns="http://www.w3.org/2000/svg" width="24" height="24"><path fill="none" stroke="#000" stroke-width="2" d="M1 1h18v18H1V1Zm4 18v4h18V5.97h-4M6 8a1 1 0 1 0 0-2 1 1 0 0 0 0 2ZM2 18l5-6 3 3 4-5 5 6"/></svg>
